brandFactory_export/2.Regular/Entradas tickets _2Regular.svg

<?xml version="1.0" encoding="UTF-8"?>
<svg width="24px" height="24px" viewBox="0 0 24 24" version="1.1" xmlns="http://www.w3.org/2000/svg" xmlns:xlink="http://www.w3.org/1999/xlink">
    <title>2.Regular/Entradas tickets _2Regular</title>
    <g id="Symbols" stroke="none" stroke-width="1" fill="none" fill-rule="evenodd">
        <g id="2.Regular/Entradas-tickets-_2Regular" fill="#5CB615" fill-rule="nonzero">
            <path d="M22.1915966,19.2201681 L22.1915966,2.47394958 C22.1915966,1.91596639 21.7344538,1.45882353 21.1731092,1.45882353 L18.5445378,1.45882353 C18.4168067,2.54117647 17.4487395,3.37815126 16.3226891,3.37815126 C15.1966387,3.37478992 14.2386555,2.5512605 14.0672269,1.43529412 L11.4722689,1.45882353 C10.9109244,1.45882353 10.4537815,1.91596639 10.4537815,2.47394958 L10.4537815,7.13613445 C10.4571429,7.17647059 10.4537815,7.21344538 10.4537815,7.25378151 L10.4537815,19.2168067 C10.4537815,19.7781513 10.9109244,20.2319328 11.4722689,20.2319328 L14.1243697,20.2319328 C14.2991597,19.1966387 15.2369748,18.4235294 16.3226891,18.4235294 C17.4084034,18.4235294 18.3462185,19.1932773 18.5579832,20.2554622 L21.1731092,20.2319328 C21.7344538,20.2352941 22.1915966,19.7815126 22.1915966,19.2201681 L22.1915966,19.2201681 Z M10.0638655,22.0571429 L10.8638655,21.6067227 C9.76806723,21.3344538 8.99495798,20.3495798 8.99159664,19.2168067 L8.99159664,19.1462185 C8.90084034,19.0890756 8.82352941,19.0117647 8.76638655,18.9176471 L3.99327731,10.4571429 C3.79495798,10.107563 3.91932773,9.66386555 4.26890756,9.46554622 L4.27226891,9.46554622 L8.99159664,6.82352941 L8.99159664,3.65378151 L7.49579832,4.49411765 C7.81176471,5.45210084 7.40840336,6.50084034 6.52773109,6.99831933 C5.64705882,7.48907563 4.52436975,7.28403361 3.8789916,6.5210084 L1.91932773,7.61680672 C1.52268908,7.83865546 1.37815126,8.3394958 1.6,8.73613445 L1.6,8.7394958 L8.93445378,21.7445378 C9.16302521,22.1378151 9.66386555,22.2789916 10.0638655,22.0571429 L10.0638655,22.0571429 Z M8.99159664,16.3428571 L8.99159664,8.49747899 L5.6302521,10.3831933 L8.99159664,16.3428571 L8.99159664,16.3428571 Z M21.1731092,-1.6068579e-05 C22.5411765,-1.6068579e-05 23.6537815,1.10588235 23.6571429,2.47394958 L23.6571429,19.2201681 C23.6537815,20.5882353 22.5411765,21.6941176 21.1731092,21.6941176 L18.5210084,21.6941176 C17.8420168,21.6941176 17.2504202,21.210084 17.1193277,20.5378151 C17.0285714,20.097479 16.5983193,19.8151261 16.1579832,19.9058824 C15.8386555,19.9731092 15.589916,20.2218487 15.5260504,20.5378151 C15.394958,21.2067227 14.8067227,21.6907563 14.1243697,21.6941176 L13.3277311,21.6941176 C13.210084,21.892437 13.0487395,22.0605042 12.8403361,22.1747899 L10.7798319,23.3277311 C10.2487395,23.6268908 9.62352941,23.7008403 9.03865546,23.5361345 C8.45378151,23.3747899 7.95630252,22.9848739 7.6605042,22.4537815 L0.32605042,9.45546218 C0.0268907563,8.92773109 -0.0470588235,8.30252101 0.121008403,7.7210084 C0.282352941,7.13613445 0.672268908,6.64201681 1.20336134,6.34621849 L3.24705882,5.20336134 C3.83529412,4.86722689 4.57815126,5.02184874 4.98487395,5.56302521 C5.17647059,5.80840336 5.5394958,5.88235294 5.81176471,5.72773109 C6.08739496,5.5697479 6.20840336,5.23361345 6.10084034,4.93781513 C5.85210084,4.31260504 6.10756303,3.6 6.69579832,3.27394958 L8.7394958,2.13109244 C8.83361345,2.07731092 8.94117647,2.05378151 9.04201681,2.01344538 C9.26386555,0.843697479 10.2857143,-1.6068579e-05 11.4722689,-1.6068579e-05 L14.1042017,-1.6068579e-05 C14.8201681,-1.6068579e-05 15.4151261,0.514285714 15.5159664,1.22689076 C15.5764706,1.62016807 15.9193277,1.91932773 16.3226891,1.91932773 C16.7260504,1.91932773 17.0689076,1.62352941 17.1294118,1.22689076 C17.2268908,0.521008403 17.8319328,-0.00336134454 18.5445378,-1.6068579e-05 L21.1731092,-1.6068579e-05 Z M12.9277311,16.0067227 L19.8554622,16.0067227 L19.8554622,5.74453782 L12.9277311,5.74453782 L12.9277311,16.0067227 L12.9277311,16.0067227 Z M20.5882353,4.28571429 C20.9915966,4.28571429 21.3210084,4.61176471 21.3210084,5.01512605 L21.3210084,16.7361345 C21.3210084,17.1394958 20.9915966,17.4655462 20.5882353,17.4655462 L12.1983193,17.4655462 C11.794958,17.4655462 11.4655462,17.1394958 11.4655462,16.7361345 L11.4655462,5.01512605 C11.4655462,4.61176471 11.794958,4.28571429 12.1983193,4.28571429 L20.5882353,4.28571429 Z" id="Entradas-tickets-_2Regular"></path>
        </g>
    </g>
</svg>

<svg width="24" height="24" viewBox="0 0 24 24" xmlns="http://www.w3.org/2000/svg"><path d="M22.192 19.22V2.474a1.02 1.02 0 00-1.019-1.015h-2.628c-.128 1.082-1.096 1.92-2.222 1.92a2.29 2.29 0 01-2.256-1.944l-2.595.024a1.02 1.02 0 00-1.018 1.015v4.662c.003.04 0 .077 0 .118v11.963c0 .561.457 1.015 1.018 1.015h2.652c.175-1.035 1.113-1.808 2.199-1.808 1.085 0 2.023.77 2.235 1.831l2.615-.023a1.012 1.012 0 001.019-1.012zm-12.128 2.837l.8-.45a2.47 2.47 0 01-1.872-2.39v-.07a.697.697 0 01-.226-.23l-4.773-8.46a.728.728 0 01.276-.991h.003l4.72-2.642v-3.17l-1.496.84a2.114 2.114 0 01-.968 2.504c-.88.491-2.004.286-2.649-.477l-1.96 1.096a.823.823 0 00-.319 1.12v.002l7.334 13.006a.837.837 0 001.13.312zm-1.072-5.714V8.497L5.63 10.383l3.362 5.96zM21.173 0a2.483 2.483 0 012.484 2.474V19.22a2.482 2.482 0 01-2.484 2.474h-2.652c-.679 0-1.27-.484-1.402-1.156a.813.813 0 00-1.593 0 1.436 1.436 0 01-1.402 1.156h-.796a1.287 1.287 0 01-.488.48l-2.06 1.154c-.531.299-1.156.373-1.741.208a2.269 2.269 0 01-1.378-1.082L.326 9.455a2.25 2.25 0 01-.205-1.734 2.262 2.262 0 011.082-1.375l2.044-1.143a1.34 1.34 0 011.738.36c.191.245.554.32.827.165a.656.656 0 00.289-.79 1.338 1.338 0 01.595-1.664L8.739 2.13c.095-.054.202-.077.303-.118A2.474 2.474 0 0111.472 0h2.632c.716 0 1.311.514 1.412 1.227a.817.817 0 001.613 0A1.422 1.422 0 0118.545 0h2.628zm-8.245 16.007h6.927V5.745h-6.927v10.262zm7.66-11.721c.404 0 .733.326.733.73v11.72c0 .403-.33.73-.733.73h-8.39a.732.732 0 01-.732-.73V5.016c0-.404.329-.73.732-.73h8.39z" fill="#5CB615" fill-rule="nonzero"/></svg>
